!!! OTL: Berkowitz379
!!! Chapter: 1
!!! Section: III
!!! Page: 93
!!! Mode: 
!!! Encoder: DJB
**kern
*staff1
*I"Piano
=1-
*clefG2
*k[f#c#]
*D:
*M4/4
8dd\L
8a\J
8r
8f#/
8b/L
8g/J
8r
8e/
=2
8a/L
8f#/
8b/
8g/J
8f#/L
8a/
8g/
8e/J
=3
8d/L
8a/J
8r
8ccn\
8r
8b/L
8a/
8g/J
=4
8g#/L
8b/J
8r
8dd\
8r
8cc#\L
8b\
8a\J
=5
8ee\
4cc#\
4b\
4a/
8g/
=6
!!linebreak:original
8f#/L
8b/
8a/
8g/J
4f#/
4e/
=7
8dd\L
8a\J
8r
8f#/
8b/L
8g/J
8r
8e/
=8
8a/L
8f#/
8b/
8g/J
8cc#/L
8a/J
4ee\
=9
8r
8dd\L
8cc#\J
8r
8ccn\
8r
8b\L
8b-\J
=10
8a/
4g#/
8a/
8dd\
8r
8d/
8r
==
*-
